X:7012
T:Greensleeves
R:Air
C:Trad. 16C
O:England
M:3/4
L:1/8
Q:1/4=120
K:Em
E2|"Em"G4A2|"G"B3cB2|"D"A4F2|"Bm"D3EF2|"Em"G4E2|E3^DE2|"B"F4^D2|"Em"B,4E2|
"Em"G4A2|"G"B3cB2|"D"A4F2|"Bm"D3EF2|"Em"G3FE2|"B"^D3^C^D2|"Em"E6-|E4z2|
("G"d6-|d3)^cB2|"D"A4F2|"Bm"D3EF2|"Em"G4E2|E3^DE2|"B"F4^D2|"G"B,6|
("G"d6-|d3)^cB2|"D"A4F2|"Bm"D3EF2|"Em"G4E2|"B"^D3^C^D2|"Em"(E6-|E4)|]

